packages/forma-36-website/static/icons/react.svg

<svg height="46" viewBox="0 0 50 46" width="50" xmlns="http://www.w3.org/2000/svg"><g opacity=".119024"><path d="m49.9288618 23c0-3.4210526-4.1361789-6.6631579-10.4776423-8.6736842 1.4634146-6.69473685.8130081-12.02105264-2.0528455-13.7263158-.6605691-.4-1.4329268-.58947368-2.2764228-.58947368v2.34736842c.4674797 0 .843496.09473684 1.1585366.27368421 1.3821138.82105263 1.9817073 3.94736842 1.5142276 7.96842105-.1117886.9894737-.2947154 2.0315789-.5182926 3.0947368-1.99187-.5052631-4.1666667-.8947368-6.4532521-1.1473684-1.3719512-1.9473684-2.7947154-3.71578945-4.2276422-5.26315787 3.3130081-3.18947369 6.4227642-4.93684211 8.5365853-4.93684211v-2.34736842c-2.7947154 0-6.453252 2.06315789-10.152439 5.64210526-3.699187-3.55789473-7.3577236-5.6-10.152439-5.6v2.34736842c2.1036585 0 5.2235772 1.73684211 8.5365853 4.90526316-1.4227642 1.54736842-2.8455284 3.30526316-4.1971544 5.25263156-2.296748.2526316-4.4715447.6421053-6.4634147 1.1578948-.2337398-1.0526316-.406504-2.0736843-.5284553-3.0526316-.4776422-4.02105265.1117887-7.14736844 1.4837399-7.97894739.304878-.18947368.7012195-.27368421 1.1686992-.27368421v-2.34736842c-.8536586 0-1.6260163.18947368-2.296748.58947368-2.85569105 1.70526316-3.49593495 7.02105263-2.0223577 13.69473684-6.32113823 2.0210526-10.43699189 5.2526316-10.43699189 8.6631579 0 3.4210526 4.13617886 6.6631579 10.47764229 8.6736842-1.46341465 6.6947369-.81300814 12.0210526 2.0528455 13.7263158.6605691.4 1.4329268.5894737 2.2865854.5894737 2.7947154 0 6.453252-2.0631579 10.152439-5.6421053 3.699187 3.5578948 7.3577236 5.6 10.152439 5.6.8536586 0 1.6260163-.1894737 2.296748-.5894737 2.8556911-1.7052631 3.495935-7.0210526 2.0223577-13.6947368 6.300813-2.0105263 10.4166667-5.2526316 10.4166667-8.6631579zm-13.2317073-7.0210526c-.3760163 1.3578947-.843496 2.7578947-1.3719512 4.1578947-.4166667-.8421053-.8536586-1.6842105-1.3313009-2.5263158-.4674796-.8421052-.9654471-1.6631579-1.4634146-2.4631579 1.4430894.2210527 2.8353659.4947369 4.1666667.831579zm-4.6544716 11.2105263c-.7926829 1.4210526-1.605691 2.768421-2.449187 4.0210526-1.5142276.1368421-3.0487805.2105263-4.5934959.2105263-1.5345528 0-3.0691057-.0736842-4.5731707-.2-.843496-1.2526315-1.6666667-2.5894737-2.4593496-4-.7723577-1.3789473-1.4735773-2.7789473-2.1138212-4.1894737.6300813-1.4105263 1.3414635-2.8210526 2.1036586-4.2.7926829-1.4210526 1.605691-2.768421 2.449187-4.0210526 1.5142276-.1368421 3.0487805-.2105263 4.5934959-.2105263 1.5345528 0 3.0691057.0736842 4.5731707.2.843496 1.2526316 1.6666667 2.5894737 2.4593496 4 .7723577 1.3789474 1.4735773 2.7789474 2.1138212 4.1894737-.6402439 1.4105263-1.3414635 2.8210526-2.1036586 4.2zm3.2825204-1.3684211c.5487804 1.4105263 1.0162601 2.8210527 1.402439 4.1894737-1.3313008.3368421-2.7337399.6210526-4.1869919.8421053.4979675-.8105263.995935-1.6421053 1.4634146-2.4947369.4674797-.8421052.9044716-1.6947368 1.3211383-2.5368421zm-10.3048781 11.231579c-.9451219-1.0105263-1.8902439-2.1368421-2.8252032-3.3684211.9146341.0421053 1.8495934.0736842 2.7947154.0736842.9552846 0 1.9004065-.0210526 2.8252033-.0736842-.9146342 1.231579-1.8597561 2.3578948-2.7947155 3.3684211zm-7.5609756-6.2c-1.4430894-.2210527-2.8353659-.4947369-4.1666667-.831579.3760163-1.3578947.843496-2.7578947 1.3719512-4.1578947.4166667.8421053.8536586 1.6842105 1.3313009 2.5263158.4776422.8421052.9654471 1.6631579 1.4634146 2.4631579zm7.5101626-21.90526318c.9451219 1.01052632 1.8902439 2.13684208 2.8252032 3.36842108-.9146341-.0421053-1.8495934-.0736842-2.7947154-.0736842-.9552846 0-1.9004065.0210526-2.8252033.0736842.9146342-1.231579 1.8597561-2.35789476 2.7947155-3.36842108zm-7.5203252 6.19999998c-.4979675.8105263-.995935 1.6421053-1.4634146 2.4947369-.4674797.8421052-.9044716 1.6842105-1.3211383 2.5263158-.5487804-1.4105264-1.0162601-2.8210527-1.402439-4.1894737 1.3313008-.3263158 2.7337399-.6105263 4.1869919-.831579zm-9.19715448 13.1789474c-3.59756098-1.5894737-5.92479675-3.6736842-5.92479675-5.3263158s2.32723577-3.7473684 5.92479675-5.3263158c.87398374-.3894737 1.82926828-.7368421 2.81504068-1.0631579.5792683 2.0631579 1.3414634 4.2105263 2.2865853 6.4105263-.9349593 2.1894737-1.6869918 4.3263158-2.2560975 6.3789474-1.0060976-.3263158-1.96138214-.6842105-2.84552848-1.0736842zm5.46747968 15.0421053c-1.3821138-.8210527-1.9817073-3.9473685-1.5142276-7.9684211.1117886-.9894737.2947154-2.0315789.5182926-3.0947368 1.99187.5052631 4.1666667.8947368 6.4532521 1.1473684 1.3719512 1.9473684 2.7947154 3.7157895 4.2276422 5.2631579-3.3130081 3.1894737-6.4227642 4.9368421-8.5365853 4.9368421-.4573171-.0105263-.843496-.1052632-1.148374-.2842105zm24.1056911-8.0210527c.4776422 4.0210527-.1117887 7.1473684-1.4837399 7.9789474-.304878.1894737-.7012195.2736842-1.1686992.2736842-2.1036585 0-5.2235772-1.7368421-8.5365853-4.9052632 1.4227642-1.5473684 2.8455284-3.3052631 4.1971544-5.2526315 2.296748-.2526316 4.4715447-.6421053 6.4634147-1.1578948.2337398 1.0631579.4166666 2.0842106.5284553 3.0631579zm3.9126016-7.0210526c-.8739838.3894737-1.8292683.7368421-2.8150407 1.0631579-.5792683-2.0631579-1.3414634-4.2105263-2.2865853-6.4105263.9349593-2.1894737 1.6869918-4.3263158 2.2560975-6.3789474 1.0060976.3263158 1.9613821.6842105 2.8556911 1.0736842 3.597561 1.5894737 5.9247967 3.6736842 5.9247967 5.3263158-.0101626 1.6526316-2.3373983 3.7473684-5.9349593 5.3263158z"/><ellipse cx="24.989837" cy="23" rx="4.644309" ry="4.810526"/></g></svg>

<?xml version="1.0" encoding="UTF-8"?>
<svg width="50px" height="46px" viewBox="0 0 50 46" version="1.1"
    xmlns="http://www.w3.org/2000/svg"
    xmlns:xlink="http://www.w3.org/1999/xlink">
    <g id="Page-1" stroke="none" stroke-width="1" fill="none" fill-rule="evenodd" opacity="0.119024368">
        <g id="Artboard" transform="translate(-464.000000, -578.000000)" fill="#000000" fill-rule="nonzero">
            <g id="React-icon" transform="translate(464.000000, 578.000000)">
                <path d="M49.9288618,23 C49.9288618,19.5789474 45.7926829,16.3368421 39.4512195,14.3263158 C40.9146341,7.63157895 40.2642276,2.30526316 37.398374,0.6 C36.7378049,0.2 35.9654472,0.0105263158 35.1219512,0.0105263158 L35.1219512,2.35789474 C35.5894309,2.35789474 35.9654472,2.45263158 36.2804878,2.63157895 C37.6626016,3.45263158 38.2621951,6.57894737 37.7947154,10.6 C37.6829268,11.5894737 37.5,12.6315789 37.2764228,13.6947368 C35.2845528,13.1894737 33.1097561,12.8 30.8231707,12.5473684 C29.4512195,10.6 28.0284553,8.83157895 26.5955285,7.28421053 C29.9085366,4.09473684 33.0182927,2.34736842 35.1321138,2.34736842 L35.1321138,0 C35.1321138,0 35.1321138,0 35.1321138,0 C32.3373984,0 28.6788618,2.06315789 24.9796748,5.64210526 C21.2804878,2.08421053 17.6219512,0.0421052632 14.8272358,0.0421052632 L14.8272358,2.38947368 C16.9308943,2.38947368 20.050813,4.12631579 23.3638211,7.29473684 C21.9410569,8.84210526 20.5182927,10.6 19.1666667,12.5473684 C16.8699187,12.8 14.695122,13.1894737 12.703252,13.7052632 C12.4695122,12.6526316 12.296748,11.6315789 12.1747967,10.6526316 C11.6971545,6.63157895 12.2865854,3.50526316 13.6585366,2.67368421 C13.9634146,2.48421053 14.3597561,2.4 14.8272358,2.4 L14.8272358,0.0526315789 C14.8272358,0.0526315789 14.8272358,0.0526315789 14.8272358,0.0526315789 C13.9735772,0.0526315789 13.2012195,0.242105263 12.5304878,0.642105263 C9.67479675,2.34736842 9.03455285,7.66315789 10.5081301,14.3368421 C4.18699187,16.3578947 0.0711382114,19.5894737 0.0711382114,23 C0.0711382114,26.4210526 4.20731707,29.6631579 10.5487805,31.6736842 C9.08536585,38.3684211 9.73577236,43.6947368 12.601626,45.4 C13.2621951,45.8 14.0345528,45.9894737 14.8882114,45.9894737 C17.6829268,45.9894737 21.3414634,43.9263158 25.0406504,40.3473684 C28.7398374,43.9052632 32.398374,45.9473684 35.1930894,45.9473684 C36.046748,45.9473684 36.8191057,45.7578947 37.4898374,45.3578947 C40.3455285,43.6526316 40.9857724,38.3368421 39.5121951,31.6631579 C45.8130081,29.6526316 49.9288618,26.4105263 49.9288618,23 Z M36.6971545,15.9789474 C36.3211382,17.3368421 35.8536585,18.7368421 35.3252033,20.1368421 C34.9085366,19.2947368 34.4715447,18.4526316 33.9939024,17.6105263 C33.5264228,16.7684211 33.0284553,15.9473684 32.5304878,15.1473684 C33.9735772,15.3684211 35.3658537,15.6421053 36.6971545,15.9789474 Z M32.0426829,27.1894737 C31.25,28.6105263 30.4369919,29.9578947 29.5934959,31.2105263 C28.0792683,31.3473684 26.5447154,31.4210526 25,31.4210526 C23.4654472,31.4210526 21.9308943,31.3473684 20.4268293,31.2210526 C19.5833333,29.9684211 18.7601626,28.6315789 17.9674797,27.2210526 C17.195122,25.8421053 16.4939024,24.4421053 15.8536585,23.0315789 C16.4837398,21.6210526 17.195122,20.2105263 17.9573171,18.8315789 C18.75,17.4105263 19.5630081,16.0631579 20.4065041,14.8105263 C21.9207317,14.6736842 23.4552846,14.6 25,14.6 C26.5345528,14.6 28.0691057,14.6736842 29.5731707,14.8 C30.4166667,16.0526316 31.2398374,17.3894737 32.0325203,18.8 C32.804878,20.1789474 33.5060976,21.5789474 34.1463415,22.9894737 C33.5060976,24.4 32.804878,25.8105263 32.0426829,27.1894737 Z M35.3252033,25.8210526 C35.8739837,27.2315789 36.3414634,28.6421053 36.7276423,30.0105263 C35.3963415,30.3473684 33.9939024,30.6315789 32.5406504,30.8526316 C33.0386179,30.0421053 33.5365854,29.2105263 34.004065,28.3578947 C34.4715447,27.5157895 34.9085366,26.6631579 35.3252033,25.8210526 Z M25.0203252,37.0526316 C24.0752033,36.0421053 23.1300813,34.9157895 22.195122,33.6842105 C23.1097561,33.7263158 24.0447154,33.7578947 24.9898374,33.7578947 C25.945122,33.7578947 26.8902439,33.7368421 27.8150407,33.6842105 C26.9004065,34.9157895 25.9552846,36.0421053 25.0203252,37.0526316 Z M17.4593496,30.8526316 C16.0162602,30.6315789 14.6239837,30.3578947 13.2926829,30.0210526 C13.6686992,28.6631579 14.1361789,27.2631579 14.6646341,25.8631579 C15.0813008,26.7052632 15.5182927,27.5473684 15.995935,28.3894737 C16.4735772,29.2315789 16.9613821,30.0526316 17.4593496,30.8526316 Z M24.9695122,8.94736842 C25.9146341,9.95789474 26.8597561,11.0842105 27.7947154,12.3157895 C26.8800813,12.2736842 25.945122,12.2421053 25,12.2421053 C24.0447154,12.2421053 23.0995935,12.2631579 22.1747967,12.3157895 C23.0894309,11.0842105 24.0345528,9.95789474 24.9695122,8.94736842 Z M17.449187,15.1473684 C16.9512195,15.9578947 16.453252,16.7894737 15.9857724,17.6421053 C15.5182927,18.4842105 15.0813008,19.3263158 14.6646341,20.1684211 C14.1158537,18.7578947 13.648374,17.3473684 13.2621951,15.9789474 C14.5934959,15.6526316 15.995935,15.3684211 17.449187,15.1473684 Z M8.25203252,28.3263158 C4.65447154,26.7368421 2.32723577,24.6526316 2.32723577,23 C2.32723577,21.3473684 4.65447154,19.2526316 8.25203252,17.6736842 C9.12601626,17.2842105 10.0813008,16.9368421 11.0670732,16.6105263 C11.6463415,18.6736842 12.4085366,20.8210526 13.3536585,23.0210526 C12.4186992,25.2105263 11.6666667,27.3473684 11.097561,29.4 C10.0914634,29.0736842 9.13617886,28.7157895 8.25203252,28.3263158 Z M13.7195122,43.3684211 C12.3373984,42.5473684 11.7378049,39.4210526 12.2052846,35.4 C12.3170732,34.4105263 12.5,33.3684211 12.7235772,32.3052632 C14.7154472,32.8105263 16.8902439,33.2 19.1768293,33.4526316 C20.5487805,35.4 21.9715447,37.1684211 23.4044715,38.7157895 C20.0914634,41.9052632 16.9817073,43.6526316 14.8678862,43.6526316 C14.4105691,43.6421053 14.0243902,43.5473684 13.7195122,43.3684211 Z M37.8252033,35.3473684 C38.3028455,39.3684211 37.7134146,42.4947368 36.3414634,43.3263158 C36.0365854,43.5157895 35.6402439,43.6 35.1727642,43.6 C33.0691057,43.6 29.949187,41.8631579 26.6361789,38.6947368 C28.0589431,37.1473684 29.4817073,35.3894737 30.8333333,33.4421053 C33.1300813,33.1894737 35.304878,32.8 37.296748,32.2842105 C37.5304878,33.3473684 37.7134146,34.3684211 37.8252033,35.3473684 Z M41.7378049,28.3263158 C40.8638211,28.7157895 39.9085366,29.0631579 38.9227642,29.3894737 C38.3434959,27.3263158 37.5813008,25.1789474 36.6361789,22.9789474 C37.5711382,20.7894737 38.3231707,18.6526316 38.8922764,16.6 C39.898374,16.9263158 40.8536585,17.2842105 41.7479675,17.6736842 C45.3455285,19.2631579 47.6727642,21.3473684 47.6727642,23 C47.6626016,24.6526316 45.3353659,26.7473684 41.7378049,28.3263158 Z" id="Shape"></path>
                <ellipse id="Oval" cx="24.9898374" cy="23" rx="4.64430894" ry="4.81052632"></ellipse>
            </g>
        </g>
    </g>
</svg>
